images/icons/email-alt.svg

<svg fill="none" height="24" viewBox="0 0 24 24" width="24" xmlns="http://www.w3.org/2000/svg" xmlns:xlink="http://www.w3.org/1999/xlink"><clipPath id="a"><path d="m0 0h24v24h-24z"/></clipPath><g clip-path="url(#a)"><path d="m12 0c-6.624 0-12 5.376-12 12s5.376 12 12 12h6v-2.4h-6c-5.208 0-9.6-4.392-9.6-9.6s4.392-9.6 9.6-9.6 9.6 4.392 9.6 9.6v1.716c0 .948-.852 1.884-1.8 1.884s-1.8-.936-1.8-1.884v-1.716c0-3.312-2.688-6-6-6s-6 2.688-6 6 2.688 6 6 6c1.656 0 3.168-.672 4.248-1.764.78 1.068 2.124 1.764 3.552 1.764 2.364 0 4.2-1.92 4.2-4.284v-1.716c0-6.624-5.376-12-12-12zm0 15.6c-1.992 0-3.6-1.608-3.6-3.6s1.608-3.6 3.6-3.6 3.6 1.608 3.6 3.6-1.608 3.6-3.6 3.6z" fill="#fff"/></g></svg>

<svg width="24" height="24" viewBox="0 0 24 24" fill="none" xmlns="http://www.w3.org/2000/svg">
<g clip-path="url(#clip0_1432_8604)">
<path d="M12 0C5.376 0 0 5.376 0 12C0 18.624 5.376 24 12 24H18V21.6H12C6.792 21.6 2.4 17.208 2.4 12C2.4 6.792 6.792 2.4 12 2.4C17.208 2.4 21.6 6.792 21.6 12V13.716C21.6 14.664 20.748 15.6 19.8 15.6C18.852 15.6 18 14.664 18 13.716V12C18 8.688 15.312 6 12 6C8.688 6 6 8.688 6 12C6 15.312 8.688 18 12 18C13.656 18 15.168 17.328 16.248 16.236C17.028 17.304 18.372 18 19.8 18C22.164 18 24 16.08 24 13.716V12C24 5.376 18.624 0 12 0ZM12 15.6C10.008 15.6 8.4 13.992 8.4 12C8.4 10.008 10.008 8.4 12 8.4C13.992 8.4 15.6 10.008 15.6 12C15.6 13.992 13.992 15.6 12 15.6Z" fill="white"/>
</g>
<defs>
<clipPath id="clip0_1432_8604">
<rect width="24" height="24" fill="white"/>
</clipPath>
</defs>
</svg>
